X:1
T:Non posso piu soffrire
T:Luca Marenzio
T:Source : Il quinto libro delle Villanelle a tre voci---Venetia---Herede di G.Scotto---1587. Editor : André Vierendeels (04/06/17).
T:Notes : Original clefs : C1, C2, F4 Editorial accidentals above the staff Music collected by Attilio Gualtieri
T:Non posso piu soffrire
T:©
T:©
C:Luca Marenzio
Z:©
%%score [ 1 2 3 ]
L:1/8
Q:1/4=120
M:4/4
K:C
V:1 treble nm="Soprano 1" snm="S 1"
V:2 treble nm="Soprano 2" snm="S 2"
V:3 bass nm="Bass" snm="B"
V:1
"^1)" z2 d2 B3 B | c2 d2 e4 | d4 f4- | f4 e4 | d2 c4 d2 | B4 A4 :: z2 c2 c2 c2 | d2 d2 e4 | %8
w: Non pos- so|piu sof- fri-|re, ahi|_ me|tan- to mar-|ti- re,|ch'io son vi-|ci- no'a mor-|
w: La fiam- ma|ch"ho nel pet-|to, la|_ mi|fa star sug-|giet- to,|e chi mi|da tor- men-|
 e4 d4- | d4 c2 B2 | A2 B2 c4- | c4 c4 | B2 AG A2 B2 | c4 B4 | e2 e4 d2 | c2 B2 A4 | G8 :| %17
w: te, ahi|_ cru- da'e|tri- sta sor-|* te,|da- te soc- cor- so'un|po- co,|a me che|sto nel fo-|co.|
w: to, ahi|_ me ch'io'il|pro- vo'e sen-|* to,|ma di tan- to do-|lo- re,|tu ne sei|cau- s'A- mo-|re.|
V:2
"^2)""^1)" z2 B2 G3 G | A2 B2 c4 | B4 d4- | d4 c4 | B2 A4 A2 | ^G4 A4 :: z2 A2 A2 A2 | A2 B2 c4 | %8
w: Non pos- so|piu sof- fri-|re, ahi|_ me|tan- to mar-|ti- re,|ch'io son vi-|ci- no'a mo-|
w: Dhe pin- gi'al-|men co- le-|i, ch'ab-|* brug-|gia'Ho- mi- ne|De- i,|dhe por- gi'al-|men a- i-|
 c4 B4- | B4 A2 G2 | ^F2 G2 A4- | A4 A4 | D2 DE ^F2 G2 | A4 G4 | c2 c4 B2 | A2 G4 ^F2 | G8 :| %17
w: te, ahi|_ cru- da'e|tri- sta sor-|* te,|da te soc- cor- so'un|po- co,|a me che|sto nel fo-|co.|
w: ta, a|_ st'al- ma|sbi- got- ti-|* ta,|ohi- me che gran tor-|men- to,|e quel ch'io|pro- vo'e sen-|to.|
V:3
"^3)""^1)""^4)" G,4 G,3 E, | F,2 D,2 C,4 | G,4 D,4- | D,4 A,4 | G,2 F,4 D,2 | E,4 A,,4 :: %6
w: Non pos- so|piu sof- fri-|re, ahi|_ me|tan- to mar-|ti- re,|
w: Ri- pa- ra|dun- que Mor-|te, al-|* la|mia tri- sta|sor- te,|
 A,4 A,3 G, | ^F,2 G,2 C,4 | C,4 G,4- | G,4 F,2 E,2 |"^-natural" D,2 E,2 F,4- | F,4 F,4 | %12
w: ch'io son vi-|ci- no'a mor-|te, ahi|_ cru- da'e|tri- sta sor-|* te,|
w: ve- di che|gran mar- ti-|re, mi|_ con- vien|pur sof- fri-|* re,|
 G,2 F,E, D,2 B,,2 | A,,4 E,4 | C,2 C,4 G,,2 | A,,2 B,,2 C,2 D,2 | G,,8 :| %17
w: da te soc- cor- so'un|po- co,|a me che|sto ne fo- *|co.|
w: O scon- so- la- to|co- re,|te ci ha|pur col- to'A- mo-|re.|

